;FLAVOR:Marlin
;TIME:1457
;Filament used: 0.640605m
;Layer height: 0.2
;MINX:134.7
;MINY:122.2
;MINZ:0.3
;MAXX:165.3
;MAXY:177.8
;MAXZ:31.9
;Generated with Cura_SteamEngine 4.8.0
M140 S60
M105
M190 S60
M104 S195
M105
M109 S195
M82 ;absolute extrusion mode
M201 X500.00 Y500.00 Z100.00 E5000.00 ;Setup machine max acceleration
M203 X500.00 Y500.00 Z10.00 E50.00 ;Setup machine max feedrate
M204 P500.00 R1000.00 T500.00 ;Setup Print/Retract/Travel acceleration
M205 X8.00 Y8.00 Z0.40 E5.00 ;Setup Jerk
M220 S100 ;Reset Feedrate
M221 S100 ;Reset Flowrate

G28 ;Home
M420 S1 Z2 ;Enable ABL using saved Mesh and Fade Height

G92 E0 ;Reset Extruder
G1 Z2.0 F3000 ;Move Z Axis up
G1 X10.1 Y20 Z0.28 F5000.0 ;Move to start position
G1 X10.1 Y200.0 Z0.28 F1500.0 E15 ;Draw the first line
G1 X10.4 Y200.0 Z0.28 F5000.0 ;Move to side a little
G1 X10.4 Y20 Z0.28 F1500.0 E30 ;Draw the second line
G92 E0 ;Reset Extruder
G1 Z2.0 F3000 ;Move Z Axis up

G92 E0
G92 E0
G1 F1500 E-8
;LAYER_COUNT:159
;LAYER:0
M107
G0 F6000 X136.58 Y124.922 Z0.3
;TYPE:SKIRT
G1 F1500 E0
G1 F1200 X137.123 Y124.349 E0.03938
G1 X137.722 Y123.834 E0.0788
G1 X138.37 Y123.383 E0.11818
G1 X139.061 Y122.999 E0.15762
G1 X139.786 Y122.687 E0.197
G1 X140.539 Y122.45 E0.23638
G1 X141.313 Y122.291 E0.27581
G1 X142.098 Y122.21 E0.31518
G1 X142.5 Y122.2 E0.33524
G1 X157.5 Y122.2 E1.08359
G1 X158.289 Y122.24 E1.12301
G1 X159.069 Y122.359 E1.16237
G1 X159.834 Y122.557 E1.20179
G1 X160.574 Y122.831 E1.24116
G1 X161.283 Y123.179 E1.28057
G1 X161.954 Y123.597 E1.32001
G1 X162.578 Y124.08 E1.35938
G1 X163.151 Y124.623 E1.39876
G1 X163.666 Y125.222 E1.43817
G1 X164.117 Y125.87 E1.47756
G1 X164.501 Y126.561 E1.517
G1 X164.813 Y127.286 E1.55638
G1 X165.05 Y128.039 E1.59576
G1 X165.209 Y128.813 E1.63518
G1 X165.29 Y129.598 E1.67455
G1 X165.3 Y130 E1.69461
G1 X165.3 Y170 E3.69022
G1 X165.26 Y170.789 E3.72964
G1 X165.141 Y171.569 E3.769
G1 X164.943 Y172.334 E3.80843
G1 X164.669 Y173.074 E3.84779
G1 X164.321 Y173.783 E3.8872
G1 X163.903 Y174.454 E3.92664
G1 X163.42 Y175.078 E3.96601
G1 X162.877 Y175.651 E4.00539
G1 X162.278 Y176.166 E4.0448
G1 X161.63 Y176.617 E4.08419
G1 X160.939 Y177.001 E4.12363
G1 X160.214 Y177.313 E4.16301
G1 X159.461 Y177.55 E4.20239
G1 X158.687 Y177.709 E4.24181
G1 X157.902 Y177.79 E4.28118
G1 X157.5 Y177.8 E4.30124
G1 X142.5 Y177.8 E5.0496
G1 X141.711 Y177.76 E5.08901
G1 X140.931 Y177.641 E5.12838
G1 X140.166 Y177.443 E5.1678
G1 X139.426 Y177.169 E5.20717
G1 X138.717 Y176.821 E5.24657
G1 X138.046 Y176.403 E5.28601
G1 X137.422 Y175.92 E5.32538
G1 X136.849 Y175.377 E5.36476
G1 X136.334 Y174.778 E5.40418
G1 X135.883 Y174.13 E5.44356
G1 X135.499 Y173.439 E5.483
G1 X135.187 Y172.714 E5.52238
G1 X134.95 Y171.961 E5.56176
G1 X134.791 Y171.187 E5.60119
G1 X134.71 Y170.402 E5.64056
G1 X134.7 Y170 E5.66062
G1 X134.7 Y130 E7.65623
G1 X134.74 Y129.211 E7.69564
G1 X134.859 Y128.431 E7.73501
G1 X135.057 Y127.666 E7.77443
G1 X135.331 Y126.926 E7.8138
G1 X135.679 Y126.217 E7.8532
G1 X136.097 Y125.546 E7.89264
G1 X136.58 Y124.922 E7.93201
G0 F6000 X136.975 Y125.077
G1 F1200 X137.516 Y124.53 E7.97039
G1 X138.111 Y124.042 E8.00878
G1 X138.753 Y123.619 E8.04714
G1 X139.436 Y123.264 E8.08554
G1 X140.151 Y122.983 E8.12387
G1 X140.893 Y122.777 E8.16229
G1 X141.651 Y122.649 E8.20064
G1 X142.5 Y122.6 E8.24307
G1 X157.5 Y122.6 E8.99142
G1 X158.268 Y122.64 E9.02979
G1 X159.028 Y122.759 E9.06817
G1 X159.771 Y122.957 E9.10653
G1 X160.49 Y123.231 E9.14492
G1 X161.176 Y123.578 E9.18327
G1 X161.823 Y123.994 E9.22165
G1 X162.423 Y124.475 E9.26001
G1 X162.97 Y125.016 E9.2984
G1 X163.458 Y125.611 E9.33679
G1 X163.881 Y126.253 E9.37515
G1 X164.236 Y126.936 E9.41355
G1 X164.517 Y127.651 E9.45188
G1 X164.723 Y128.393 E9.49029
G1 X164.851 Y129.151 E9.52865
G1 X164.9 Y130 E9.57107
G1 X164.9 Y170 E11.56668
G1 X164.86 Y170.768 E11.60505
G1 X164.741 Y171.528 E11.64343
G1 X164.543 Y172.271 E11.68179
G1 X164.269 Y172.99 E11.72018
G1 X163.922 Y173.676 E11.75853
G1 X163.506 Y174.323 E11.79691
G1 X163.025 Y174.923 E11.83527
G1 X162.484 Y175.47 E11.87366
G1 X161.889 Y175.958 E11.91205
G1 X161.247 Y176.381 E11.9504
G1 X160.564 Y176.736 E11.98881
G1 X159.849 Y177.017 E12.02713
G1 X159.107 Y177.223 E12.06555
G1 X158.349 Y177.351 E12.10391
G1 X157.5 Y177.4 E12.14633
G1 X142.5 Y177.4 E12.89469
G1 X141.732 Y177.36 E12.93305
G1 X140.972 Y177.241 E12.97143
G1 X140.229 Y177.043 E13.00979
G1 X139.51 Y176.769 E13.04818
G1 X138.824 Y176.422 E13.08654
G1 X138.177 Y176.006 E13.12491
G1 X137.577 Y175.525 E13.16328
G1 X137.03 Y174.984 E13.20166
G1 X136.542 Y174.389 E13.24005
G1 X136.119 Y173.747 E13.27841
G1 X135.764 Y173.064 E13.31681
G1 X135.483 Y172.349 E13.35514
G1 X135.277 Y171.607 E13.39356
G1 X135.149 Y170.849 E13.43191
G1 X135.1 Y170 E13.47434
G1 X135.1 Y130 E15.46994
G1 X135.14 Y129.232 E15.50831
G1 X135.259 Y128.472 E15.54669
G1 X135.457 Y127.729 E15.58505
G1 X135.731 Y127.01 E15.62344
G1 X136.078 Y126.324 E15.66179
G1 X136.494 Y125.677 E15.70017
G1 X136.975 Y125.077 E15.73853
G0 F6000 X137.371 Y125.237
G1 F1200 X137.908 Y124.716 E15.77586
G1 X138.498 Y124.257 E15.81316
G1 X139.134 Y123.862 E15.85051
G1 X139.808 Y123.538 E15.88782
G1 X140.513 Y123.288 E15.92514
G1 X141.241 Y123.114 E15.96248
G1 X141.983 Y123.019 E15.9998
G1 X142.5 Y123 E16.02561
G1 X157.5 Y123 E16.77396
G1 X158.247 Y123.04 E16.81129
G1 X158.985 Y123.159 E16.84858
G1 X159.707 Y123.357 E16.88593
G1 X160.403 Y123.63 E16.92323
G1 X161.066 Y123.977 E16.96056
G1 X161.689 Y124.392 E16.99791
G1 X162.263 Y124.871 E17.03521
G1 X162.784 Y125.408 E17.07254
G1 X163.243 Y125.998 E17.10983
G1 X163.638 Y126.634 E17.14718
G1 X163.962 Y127.308 E17.18449
G1 X164.212 Y128.013 E17.22181
G1 X164.386 Y128.741 E17.25915
G1 X164.481 Y129.483 E17.29647
G1 X164.5 Y130 E17.32228
G1 X164.5 Y170 E19.31789
G1 X164.46 Y170.747 E19.35521
G1 X164.341 Y171.485 E19.39251
G1 X164.143 Y172.207 E19.42986
G1 X163.87 Y172.903 E19.46716
G1 X163.523 Y173.566 E19.50449
G1 X163.108 Y174.189 E19.54184
G1 X162.629 Y174.763 E19.57914
G1 X162.092 Y175.284 E19.61646
G1 X161.502 Y175.743 E19.65376
G1 X160.866 Y176.138 E19.69111
G1 X160.192 Y176.462 E19.72842
G1 X159.487 Y176.712 E19.76574
G1 X158.759 Y176.886 E19.80308
G1 X158.017 Y176.981 E19.8404
G1 X157.5 Y177 E19.86621
G1 X142.5 Y177 E20.61457
G1 X141.753 Y176.96 E20.65189
G1 X141.015 Y176.841 E20.68918
G1 X140.293 Y176.643 E20.72653
G1 X139.597 Y176.37 E20.76383
G1 X138.934 Y176.023 E20.80116
G1 X138.311 Y175.608 E20.83851
G1 X137.737 Y175.129 E20.87581
G1 X137.216 Y174.592 E20.91314
G1 X136.757 Y174.002 E20.95043
G1 X136.362 Y173.366 E20.98778
G1 X136.038 Y172.692 E21.02509
G1 X135.788 Y171.987 E21.06241
G1 X135.614 Y171.259 E21.09975
G1 X135.519 Y170.517 E21.13707
G1 X135.5 Y170 E21.16289
G1 X135.5 Y130 E23.15849
G1 X135.54 Y129.253 E23.19581
G1 X135.659 Y128.515 E23.23311
G1 X135.857 Y127.793 E23.27046
G1 X136.13 Y127.097 E23.30776
G1 X136.477 Y126.434 E23.34509
G1 X136.892 Y125.811 E23.38244
G1 X137.371 Y125.237 E23.41974
G0 F6000 X137.289 Y125.95
G1 F1200 X137.765 Y125.402 E23.45595
G1 X138.299 Y124.909 E23.49221
G1 X138.884 Y124.479 E23.52843
G1 X139.513 Y124.115 E23.56469
G1 X140.178 Y123.822 E23.60094
G1 X140.871 Y123.604 E23.63719
G1 X141.583 Y123.464 E23.67339
G1 X142.5 Y123.4 E23.71925
G1 X157.5 Y123.4 E24.4676
G1 X158.225 Y123.44 E24.50383
G1 X158.942 Y123.559 E24.54009
G1 X159.641 Y123.757 E24.57633
G1 X160.314 Y124.03 E24.61257
G1 X160.953 Y124.375 E24.6488
G1 X161.55 Y124.789 E24.68504
G1 X162.098 Y125.265 E24.72126
G1 X162.591 Y125.799 E24.75752
G1 X163.021 Y126.384 E24.79374
G1 X163.385 Y127.013 E24.82999
G1 X163.678 Y127.678 E24.86625
G1 X163.896 Y128.371 E24.90249
G1 X164.036 Y129.083 E24.93869
G1 X164.1 Y130 E24.98456
G1 X164.1 Y170 E26.98016
G1 X164.06 Y170.725 E27.01639
G1 X163.941 Y171.442 E27.05265
G1 X163.743 Y172.141 E27.08889
G1 X163.47 Y172.814 E27.12513
G1 X163.125 Y173.453 E27.16136
G1 X162.711 Y174.05 E27.1976
G1 X162.235 Y174.598 E27.23382
G1 X161.701 Y175.091 E27.27008
G1 X161.116 Y175.521 E27.3063
G1 X160.487 Y175.885 E27.34255
G1 X159.822 Y176.178 E27.37881
G1 X159.129 Y176.396 E27.41505
G1 X158.417 Y176.536 E27.45126
G1 X157.5 Y176.6 E27.49712
G1 X142.5 Y176.6 E28.24547
G1 X141.775 Y176.56 E28.28169
G1 X141.058 Y176.441 E28.31796
G1 X140.359 Y176.243 E28.3542
G1 X139.686 Y175.97 E28.39043
G1 X139.047 Y175.625 E28.42666
G1 X138.45 Y175.211 E28.46291
G1 X137.902 Y174.735 E28.49912
G1 X137.409 Y174.201 E28.53538
G1 X136.979 Y173.616 E28.5716
G1 X136.615 Y172.987 E28.60786
G1 X136.322 Y172.322 E28.64411
G1 X136.104 Y171.629 E28.68036
G1 X135.964 Y170.917 E28.71656
G1 X135.9 Y170 E28.76242
G1 X135.9 Y130 E30.75803
G1 X135.94 Y129.275 E30.79425
G1 X136.059 Y128.558 E30.83052
G1 X136.257 Y127.859 E30.86676
G1 X136.53 Y127.186 E30.90299
G1 X136.875 Y126.547 E30.93922
G1 X137.289 Y125.95 E30.97547
G0 F6000 X137.685 Y126.094
G1 F1200 X138.159 Y125.573 E31.01061
G1 X138.689 Y125.109 E31.04575
G1 X139.268 Y124.709 E31.08086
G1 X139.889 Y124.377 E31.11599
G1 X140.543 Y124.117 E31.15111
G1 X141.223 Y123.933 E31.18625
G1 X141.919 Y123.827 E31.22138
G1 X142.5 Y123.8 E31.25039
G1 X157.5 Y123.8 E31.99875
G1 X158.203 Y123.84 E32.03388
G1 X158.897 Y123.959 E32.069
G1 X159.572 Y124.157 E32.1041
G1 X160.221 Y124.429 E32.13921
G1 X160.835 Y124.774 E32.17434
G1 X161.406 Y125.185 E32.20944
G1 X161.927 Y125.659 E32.24458
G1 X162.391 Y126.189 E32.27973
G1 X162.791 Y126.768 E32.31484
G1 X163.123 Y127.389 E32.34997
G1 X163.383 Y128.043 E32.38508
G1 X163.567 Y128.723 E32.42023
G1 X163.673 Y129.419 E32.45535
G1 X163.7 Y130 E32.48437
G1 X163.7 Y170 E34.47997
G1 X163.66 Y170.703 E34.5151
G1 X163.541 Y171.397 E34.55023
G1 X163.343 Y172.072 E34.58533
G1 X163.071 Y172.721 E34.62044
G1 X162.726 Y173.335 E34.65557
G1 X162.315 Y173.906 E34.69067
G1 X161.841 Y174.427 E34.72581
G1 X161.311 Y174.891 E34.76096
G1 X160.732 Y175.291 E34.79607
G1 X160.111 Y175.623 E34.8312
G1 X159.457 Y175.883 E34.86631
G1 X158.777 Y176.067 E34.90145
G1 X158.081 Y176.173 E34.93658
G1 X157.5 Y176.2 E34.9656
G1 X142.5 Y176.2 E35.71395
G1 X141.797 Y176.16 E35.74908
G1 X141.103 Y176.041 E35.78421
G1 X140.428 Y175.843 E35.8193
G1 X139.779 Y175.571 E35.85441
G1 X139.165 Y175.226 E35.88955
G1 X138.594 Y174.815 E35.92465
G1 X138.073 Y174.341 E35.95979
G1 X137.609 Y173.811 E35.99493
G1 X137.209 Y173.232 E36.03004
G1 X136.877 Y172.611 E36.06517
G1 X136.617 Y171.957 E36.10028
G1 X136.433 Y171.277 E36.13543
G1 X136.327 Y170.581 E36.17055
G1 X136.3 Y170 E36.19957
G1 X136.3 Y130 E38.19518
G1 X136.34 Y129.297 E38.23031
G1 X136.459 Y128.603 E38.26544
G1 X136.657 Y127.928 E38.30053
G1 X136.929 Y127.279 E38.33564
G1 X137.274 Y126.665 E38.37078
G1 X137.685 Y126.094 E38.40588
G0 F6000 X138.082 Y126.242
G1 F1200 X138.553 Y125.751 E38.43982
G1 X139.078 Y125.317 E38.4738
G1 X139.65 Y124.948 E38.50776
G1 X140.262 Y124.649 E38.54175
G1 X140.904 Y124.424 E38.57568
G1 X141.569 Y124.275 E38.60968
G1 X142.5 Y124.2 E38.65628
G1 X157.5 Y124.2 E39.40464
G1 X158.18 Y124.24 E39.43862
G1 X158.85 Y124.359 E39.47257
G1 X159.502 Y124.556 E39.50655
G1 X160.126 Y124.828 E39.54051
G1 X160.714 Y125.172 E39.5745
G1 X161.258 Y125.582 E39.60848
G1 X161.749 Y126.053 E39.64243
G1 X162.183 Y126.578 E39.67641
G1 X162.552 Y127.15 E39.71037
G1 X162.851 Y127.762 E39.74435
G1 X163.076 Y128.404 E39.77829
G1 X163.225 Y129.069 E39.81229
G1 X163.3 Y130 E39.85889
G1 X163.3 Y170 E41.8545
G1 X163.26 Y170.68 E41.88848
G1 X163.141 Y171.35 E41.92243
G1 X162.944 Y172.002 E41.95641
G1 X162.672 Y172.626 E41.99037
G1 X162.328 Y173.214 E42.02436
G1 X161.918 Y173.758 E42.05835
G1 X161.447 Y174.249 E42.09229
G1 X160.922 Y174.683 E42.12627
G1 X160.35 Y175.052 E42.16023
G1 X159.738 Y175.351 E42.19421
G1 X159.096 Y175.576 E42.22815
G1 X158.431 Y175.725 E42.26215
G1 X157.5 Y175.8 E42.30875
G1 X142.5 Y175.8 E43.05711
G1 X141.82 Y175.76 E43.09109
G1 X141.15 Y175.641 E43.12504
G1 X140.498 Y175.444 E43.15902
G1 X139.874 Y175.172 E43.19298
G1 X139.286 Y174.828 E43.22697
G1 X138.742 Y174.418 E43.26095
G1 X138.251 Y173.947 E43.2949
G1 X137.817 Y173.422 E43.32888
G1 X137.448 Y172.85 E43.36284
G1 X137.149 Y172.238 E43.39682
G1 X136.924 Y171.596 E43.43076
G1 X136.775 Y170.931 E43.46476
G1 X136.7 Y170 E43.51136
G1 X136.7 Y130 E45.50697
G1 X136.74 Y129.32 E45.54095
G1 X136.859 Y128.65 E45.5749
G1 X137.056 Y127.998 E45.60888
G1 X137.328 Y127.374 E45.64284
G1 X137.672 Y126.786 E45.67683
G1 X138.082 Y126.242 E45.71081
G0 F6000 X138.478 Y126.397
G1 F1200 X138.945 Y125.935 E45.74359
G1 X139.465 Y125.534 E45.77635
G1 X140.029 Y125.198 E45.8091
G1 X140.631 Y124.934 E45.8419
G1 X141.26 Y124.744 E45.87468
G1 X141.907 Y124.633 E45.90743
G1 X142.5 Y124.6 E45.93706
G1 X157.5 Y124.6 E46.68541
G1 X158.156 Y124.64 E46.7182
G1 X158.802 Y124.759 E46.75097
G1 X159.429 Y124.956 E46.78376
G1 X160.027 Y125.228 E46.81654
G1 X160.588 Y125.57 E46.84932
G1 X161.103 Y125.978 E46.8821
G1 X161.565 Y126.445 E46.91487
G1 X161.966 Y126.965 E46.94763
G1 X162.302 Y127.529 E46.98038
G1 X162.566 Y128.131 E47.01318
G1 X162.756 Y128.76 E47.04596
G1 X162.867 Y129.407 E47.07871
G1 X162.9 Y130 E47.10834
G1 X162.9 Y170 E49.10395
G1 X162.86 Y170.656 E49.13674
G1 X162.741 Y171.302 E49.16951
G1 X162.544 Y171.929 E49.2023
G1 X162.272 Y172.527 E49.23507
G1 X161.93 Y173.088 E49.26785
G1 X161.522 Y173.603 E49.30063
G1 X161.055 Y174.065 E49.33341
G1 X160.535 Y174.466 E49.36617
G1 X159.971 Y174.802 E49.39892
G1 X159.369 Y175.066 E49.43171
G1 X158.74 Y175.256 E49.4645
G1 X158.093 Y175.367 E49.49725
G1 X157.5 Y175.4 E49.52688
G1 X142.5 Y175.4 E50.27523
G1 X141.844 Y175.36 E50.30802
G1 X141.198 Y175.241 E50.34079
G1 X140.571 Y175.044 E50.37358
G1 X139.973 Y174.772 E50.40635
G1 X139.412 Y174.43 E50.43913
G1 X138.897 Y174.022 E50.47191
G1 X138.435 Y173.555 E50.50469
G1 X138.034 Y173.035 E50.53745
G1 X137.698 Y172.471 E50.5702
G1 X137.434 Y171.869 E50.60299
G1 X137.244 Y171.24 E50.63578
G1 X137.133 Y170.593 E50.66853
G1 X137.1 Y170 E50.69816
G1 X137.1 Y130 E52.69377
G1 X137.14 Y129.344 E52.72655
G1 X137.259 Y128.698 E52.75933
G1 X137.456 Y128.071 E52.79211
G1 X137.728 Y127.473 E52.82489
G1 X138.07 Y126.912 E52.85767
G1 X138.478 Y126.397 E52.89045
G0 F6000 X138.873 Y126.559
G1 F1200 X139.336 Y126.129 E52.92197
G1 X139.85 Y125.76 E52.95354
G1 X140.406 Y125.46 E52.98506
G1 X140.995 Y125.232 E53.01657
G1 X141.609 Y125.08 E53.04813
G1 X142.5 Y125 E53.09276
G1 X157.5 Y125 E53.84111
G1 X158.131 Y125.04 E53.87265
G1 X158.752 Y125.159 E53.9042
G1 X159.352 Y125.356 E53.93571
G1 X159.924 Y125.627 E53.96728
G1 X160.456 Y125.967 E53.99878
G1 X160.941 Y126.373 E54.03034
G1 X161.371 Y126.836 E54.06186
G1 X161.74 Y127.35 E54.09343
G1 X162.04 Y127.906 E54.12495
G1 X162.268 Y128.495 E54.15646
G1 X162.42 Y129.109 E54.18802
G1 X162.5 Y130 E54.23265
G1 X162.5 Y170 E56.22826
G1 X162.46 Y170.631 E56.2598
G1 X162.341 Y171.252 E56.29135
G1 X162.144 Y171.852 E56.32285
G1 X161.873 Y172.424 E56.35443
G1 X161.533 Y172.956 E56.38593
G1 X161.127 Y173.441 E56.41749
G1 X160.664 Y173.871 E56.44901
G1 X160.15 Y174.24 E56.48058
G1 X159.594 Y174.54 E56.5121
G1 X159.005 Y174.768 E56.54361
G1 X158.391 Y174.92 E56.57516
G1 X157.5 Y175 E56.6198
G1 X142.5 Y175 E57.36815
G1 X141.869 Y174.96 E57.39969
G1 X141.248 Y174.841 E57.43124
G1 X140.648 Y174.644 E57.46274
G1 X140.076 Y174.373 E57.49432
G1 X139.544 Y174.033 E57.52582
G1 X139.059 Y173.627 E57.55738
G1 X138.629 Y173.164 E57.5889
G1 X138.26 Y172.65 E57.62047
G1 X137.96 Y172.094 E57.65199
G1 X137.732 Y171.505 E57.6835
G1 X137.58 Y170.891 E57.71506
G1 X137.5 Y170 E57.75969
G1 X137.5 Y130 E59.75529
G1 X137.54 Y129.369 E59.78684
G1 X137.659 Y128.748 E59.81838
G1 X137.856 Y128.148 E59.84989
G1 X138.127 Y127.576 E59.88147
G1 X138.467 Y127.044 E59.91297
G1 X138.873 Y126.559 E59.94452
G0 F6000 X138.865 Y127.181
G1 F1200 X139.267 Y126.728 E59.97474
G1 X139.725 Y126.331 E60.00498
G1 X140.232 Y125.998 E60.03524
G1 X140.778 Y125.734 E60.0655
G1 X141.354 Y125.545 E60.09574
G1 X141.95 Y125.433 E60.126
G1 X142.5 Y125.4 E60.15349
G1 X157.5 Y125.4 E60.90184
G1 X158.105 Y125.44 E60.93209
G1 X158.699 Y125.559 E60.96231
G1 X159.273 Y125.755 E60.99257
G1 X159.816 Y126.026 E61.02285
