;FLAVOR:Marlin
;TIME:2092
;Filament used: 1.71857m
;Layer height: 0.2
;MINX:132.2
;MINY:132.2
;MINZ:0.3
;MAXX:167.8
;MAXY:167.8
;MAXZ:19.9
;Generated with Cura_SteamEngine 4.8.0
M140 S60
M105
M190 S60
M104 S195
M105
M109 S195
M82 ;absolute extrusion mode
M201 X500.00 Y500.00 Z100.00 E5000.00 ;Setup machine max acceleration
M203 X500.00 Y500.00 Z10.00 E50.00 ;Setup machine max feedrate
M204 P500.00 R1000.00 T500.00 ;Setup Print/Retract/Travel acceleration
M205 X8.00 Y8.00 Z0.40 E5.00 ;Setup Jerk
M220 S100 ;Reset Feedrate
M221 S100 ;Reset Flowrate

G28 ;Home
M420 S1 Z2 ;Enable ABL using saved Mesh and Fade Height

G92 E0 ;Reset Extruder
G1 Z2.0 F3000 ;Move Z Axis up
G1 X10.1 Y20 Z0.28 F5000.0 ;Move to start position
G1 X10.1 Y200.0 Z0.28 F1500.0 E15 ;Draw the first line
G1 X10.4 Y200.0 Z0.28 F5000.0 ;Move to side a little
G1 X10.4 Y20 Z0.28 F1500.0 E30 ;Draw the second line
G92 E0 ;Reset Extruder
G1 Z2.0 F3000 ;Move Z Axis up

G92 E0
G92 E0
G1 F1800 E-8
;LAYER_COUNT:99
;LAYER:0
M107
G0 F6000 X134.623 Y134.349 Z0.3
;TYPE:SKIRT
G1 F1800 E0
G1 F1200 X135.222 Y133.834 E0.03941
G1 X135.87 Y133.383 E0.0788
G1 X136.561 Y132.999 E0.11824
G1 X137.286 Y132.687 E0.15762
G1 X138.039 Y132.45 E0.197
G1 X138.813 Y132.291 E0.23642
G1 X139.598 Y132.21 E0.27579
G1 X140 Y132.2 E0.29586
G1 X160 Y132.2 E1.29366
G1 X160.789 Y132.24 E1.33307
G1 X161.569 Y132.359 E1.37244
G1 X162.334 Y132.557 E1.41186
G1 X163.074 Y132.831 E1.45123
G1 X163.783 Y133.179 E1.49063
G1 X164.454 Y133.597 E1.53007
G1 X165.078 Y134.08 E1.56944
G1 X165.651 Y134.623 E1.60883
G1 X166.166 Y135.222 E1.64824
G1 X166.617 Y135.87 E1.68763
G1 X167.001 Y136.561 E1.72706
G1 X167.313 Y137.286 E1.76644
G1 X167.55 Y138.039 E1.80583
G1 X167.709 Y138.813 E1.84525
G1 X167.79 Y139.598 E1.88462
G1 X167.8 Y140 E1.90468
G1 X167.8 Y160 E2.90249
G1 X167.76 Y160.789 E2.9419
G1 X167.641 Y161.569 E2.98126
G1 X167.443 Y162.334 E3.02069
G1 X167.169 Y163.074 E3.06006
G1 X166.821 Y163.783 E3.09946
G1 X166.403 Y164.454 E3.1389
G1 X165.92 Y165.078 E3.17827
G1 X165.377 Y165.651 E3.21765
G1 X164.778 Y166.166 E3.25706
G1 X164.13 Y166.617 E3.29645
G1 X163.439 Y167.001 E3.33589
G1 X162.714 Y167.313 E3.37527
G1 X161.961 Y167.55 E3.41465
G1 X161.187 Y167.709 E3.45407
G1 X160.402 Y167.79 E3.49345
G1 X160 Y167.8 E3.51351
G1 X140 Y167.8 E4.51131
G1 X139.211 Y167.76 E4.55073
G1 X138.431 Y167.641 E4.59009
G1 X137.666 Y167.443 E4.62951
G1 X136.926 Y167.169 E4.66888
G1 X136.217 Y166.821 E4.70829
G1 X135.546 Y166.403 E4.74773
G1 X134.922 Y165.92 E4.78709
G1 X134.349 Y165.377 E4.82648
G1 X133.834 Y164.778 E4.86589
G1 X133.383 Y164.13 E4.90528
G1 X132.999 Y163.439 E4.94472
G1 X132.687 Y162.714 E4.98409
G1 X132.45 Y161.961 E5.02348
G1 X132.291 Y161.187 E5.0629
G1 X132.21 Y160.402 E5.10227
G1 X132.2 Y160 E5.12233
G1 X132.2 Y140 E6.12014
G1 X132.24 Y139.211 E6.15955
G1 X132.359 Y138.431 E6.19892
G1 X132.557 Y137.666 E6.23834
G1 X132.831 Y136.926 E6.27771
G1 X133.179 Y136.217 E6.31711
G1 X133.597 Y135.546 E6.35655
G1 X134.08 Y134.922 E6.39592
G1 X134.623 Y134.349 E6.4353
G0 F6000 X135.016 Y134.53
G1 F1200 X135.611 Y134.042 E6.4737
G1 X136.253 Y133.619 E6.51205
G1 X136.936 Y133.264 E6.55046
G1 X137.651 Y132.983 E6.58878
G1 X138.393 Y132.777 E6.6272
G1 X139.151 Y132.649 E6.66555
G1 X140 Y132.6 E6.70798
G1 X160 Y132.6 E7.70579
G1 X160.768 Y132.64 E7.74415
G1 X161.528 Y132.759 E7.78253
G1 X162.271 Y132.957 E7.82089
G1 X162.99 Y133.231 E7.85928
G1 X163.676 Y133.578 E7.89764
G1 X164.323 Y133.994 E7.93601
G1 X164.923 Y134.475 E7.97438
G1 X165.47 Y135.016 E8.01276
G1 X165.958 Y135.611 E8.05115
G1 X166.381 Y136.253 E8.08951
G1 X166.736 Y136.936 E8.12791
G1 X167.017 Y137.651 E8.16624
G1 X167.223 Y138.393 E8.20466
G1 X167.351 Y139.151 E8.24301
G1 X167.4 Y140 E8.28544
G1 X167.4 Y160 E9.28324
G1 X167.36 Y160.768 E9.32161
G1 X167.241 Y161.528 E9.35999
G1 X167.043 Y162.271 E9.39835
G1 X166.769 Y162.99 E9.43674
G1 X166.422 Y163.676 E9.47509
G1 X166.006 Y164.323 E9.51347
G1 X165.525 Y164.923 E9.55183
G1 X164.984 Y165.47 E9.59021
G1 X164.389 Y165.958 E9.62861
G1 X163.747 Y166.381 E9.66696
G1 X163.064 Y166.736 E9.70537
G1 X162.349 Y167.017 E9.74369
G1 X161.607 Y167.223 E9.78211
G1 X160.849 Y167.351 E9.82046
G1 X160 Y167.4 E9.86289
G1 X140 Y167.4 E10.86069
G1 X139.232 Y167.36 E10.89906
G1 X138.472 Y167.241 E10.93744
G1 X137.729 Y167.043 E10.9758
G1 X137.01 Y166.769 E11.01419
G1 X136.324 Y166.422 E11.05254
G1 X135.677 Y166.006 E11.09092
G1 X135.077 Y165.525 E11.12929
G1 X134.53 Y164.984 E11.16767
G1 X134.042 Y164.389 E11.20606
G1 X133.619 Y163.747 E11.24442
G1 X133.264 Y163.064 E11.28282
G1 X132.983 Y162.349 E11.32115
G1 X132.777 Y161.607 E11.35957
G1 X132.649 Y160.849 E11.39792
G1 X132.6 Y160 E11.44035
G1 X132.6 Y140 E12.43815
G1 X132.64 Y139.232 E12.47652
G1 X132.759 Y138.472 E12.5149
G1 X132.957 Y137.729 E12.55326
G1 X133.231 Y137.01 E12.59165
G1 X133.578 Y136.324 E12.63
G1 X133.994 Y135.677 E12.66837
G1 X134.475 Y135.077 E12.70674
G1 X135.016 Y134.53 E12.74512
G0 F6000 X135.408 Y134.716
G1 F1200 X135.998 Y134.257 E12.78242
G1 X136.634 Y133.862 E12.81977
G1 X137.308 Y133.538 E12.85708
G1 X138.013 Y133.288 E12.8944
G1 X138.741 Y133.114 E12.93174
G1 X139.483 Y133.019 E12.96906
G1 X140 Y133 E12.99487
G1 X160 Y133 E13.99267
G1 X160.747 Y133.04 E14.03
G1 X161.485 Y133.159 E14.06729
G1 X162.207 Y133.357 E14.10464
G1 X162.903 Y133.63 E14.14194
G1 X163.566 Y133.977 E14.17927
G1 X164.189 Y134.392 E14.21662
G1 X164.763 Y134.871 E14.25392
G1 X165.284 Y135.408 E14.29125
G1 X165.743 Y135.998 E14.32854
G1 X166.138 Y136.634 E14.36589
G1 X166.462 Y137.308 E14.4032
G1 X166.712 Y138.013 E14.44052
G1 X166.886 Y138.741 E14.47786
G1 X166.981 Y139.483 E14.51518
G1 X167 Y140 E14.54099
G1 X167 Y160 E15.5388
G1 X166.96 Y160.747 E15.57612
G1 X166.841 Y161.485 E15.61341
G1 X166.643 Y162.207 E15.65077
G1 X166.37 Y162.903 E15.68806
G1 X166.023 Y163.566 E15.7254
G1 X165.608 Y164.189 E15.76274
G1 X165.129 Y164.763 E15.80004
G1 X164.592 Y165.284 E15.83737
G1 X164.002 Y165.743 E15.87466
G1 X163.366 Y166.138 E15.91202
G1 X162.692 Y166.462 E15.94933
G1 X161.987 Y166.712 E15.98664
G1 X161.259 Y166.886 E16.02399
G1 X160.517 Y166.981 E16.06131
G1 X160 Y167 E16.08712
G1 X140 Y167 E17.08492
G1 X139.253 Y166.96 E17.12224
G1 X138.515 Y166.841 E17.15954
G1 X137.793 Y166.643 E17.19689
G1 X137.097 Y166.37 E17.23419
G1 X136.434 Y166.023 E17.27152
G1 X135.811 Y165.608 E17.30887
G1 X135.237 Y165.129 E17.34617
G1 X134.716 Y164.592 E17.3835
G1 X134.257 Y164.002 E17.42079
G1 X133.862 Y163.366 E17.45814
G1 X133.538 Y162.692 E17.49545
G1 X133.288 Y161.987 E17.53277
G1 X133.114 Y161.259 E17.57011
G1 X133.019 Y160.517 E17.60743
G1 X133 Y160 E17.63324
G1 X133 Y140 E18.63105
G1 X133.04 Y139.253 E18.66837
G1 X133.159 Y138.515 E18.70566
G1 X133.357 Y137.793 E18.74301
G1 X133.63 Y137.097 E18.78031
G1 X133.977 Y136.434 E18.81765
G1 X134.392 Y135.811 E18.85499
G1 X134.871 Y135.237 E18.89229
G1 X135.408 Y134.716 E18.92962
G0 F6000 X135.265 Y135.402
G1 F1200 X135.799 Y134.909 E18.96588
G1 X136.384 Y134.479 E19.0021
G1 X137.013 Y134.115 E19.03836
G1 X137.678 Y133.822 E19.07461
G1 X138.371 Y133.604 E19.11086
G1 X139.083 Y133.464 E19.14706
G1 X140 Y133.4 E19.19292
G1 X160 Y133.4 E20.19072
G1 X160.725 Y133.44 E20.22695
G1 X161.442 Y133.559 E20.26321
G1 X162.141 Y133.757 E20.29945
G1 X162.814 Y134.03 E20.33569
G1 X163.453 Y134.375 E20.37192
G1 X164.05 Y134.789 E20.40816
G1 X164.598 Y135.265 E20.44438
G1 X165.091 Y135.799 E20.48063
G1 X165.521 Y136.384 E20.51686
G1 X165.885 Y137.013 E20.55311
G1 X166.178 Y137.678 E20.58937
G1 X166.396 Y138.371 E20.62561
G1 X166.536 Y139.083 E20.66181
G1 X166.6 Y140 E20.70767
G1 X166.6 Y160 E21.70548
G1 X166.56 Y160.725 E21.7417
G1 X166.441 Y161.442 E21.77796
G1 X166.243 Y162.141 E21.81421
G1 X165.97 Y162.814 E21.85044
G1 X165.625 Y163.453 E21.88667
G1 X165.211 Y164.05 E21.92292
G1 X164.735 Y164.598 E21.95913
G1 X164.201 Y165.091 E21.99539
G1 X163.616 Y165.521 E22.03161
G1 X162.987 Y165.885 E22.06787
G1 X162.322 Y166.178 E22.10412
G1 X161.629 Y166.396 E22.14037
G1 X160.917 Y166.536 E22.17657
G1 X160 Y166.6 E22.22243
G1 X140 Y166.6 E23.22024
G1 X139.275 Y166.56 E23.25646
G1 X138.558 Y166.441 E23.29272
G1 X137.859 Y166.243 E23.32897
G1 X137.186 Y165.97 E23.3652
G1 X136.547 Y165.625 E23.40143
G1 X135.95 Y165.211 E23.43767
G1 X135.402 Y164.735 E23.47389
G1 X134.909 Y164.201 E23.51015
G1 X134.479 Y163.616 E23.54637
G1 X134.115 Y162.987 E23.58263
G1 X133.822 Y162.322 E23.61888
G1 X133.604 Y161.629 E23.65512
G1 X133.464 Y160.917 E23.69133
G1 X133.4 Y160 E23.73719
G1 X133.4 Y140 E24.73499
G1 X133.44 Y139.275 E24.77122
G1 X133.559 Y138.558 E24.80748
G1 X133.757 Y137.859 E24.84372
G1 X134.03 Y137.186 E24.87996
G1 X134.375 Y136.547 E24.91619
G1 X134.789 Y135.95 E24.95243
G1 X135.265 Y135.402 E24.98864
G0 F6000 X135.659 Y135.573
G1 F1200 X136.189 Y135.109 E25.02379
G1 X136.768 Y134.709 E25.0589
G1 X137.389 Y134.377 E25.09403
G1 X138.043 Y134.117 E25.12914
G1 X138.723 Y133.933 E25.16429
G1 X139.419 Y133.827 E25.19941
G1 X140 Y133.8 E25.22843
G1 X160 Y133.8 E26.22623
G1 X160.703 Y133.84 E26.26136
G1 X161.397 Y133.959 E26.29649
G1 X162.072 Y134.157 E26.33159
G1 X162.721 Y134.429 E26.36669
G1 X163.335 Y134.774 E26.40183
G1 X163.906 Y135.185 E26.43693
G1 X164.427 Y135.659 E26.47207
G1 X164.891 Y136.189 E26.50721
G1 X165.291 Y136.768 E26.54232
G1 X165.623 Y137.389 E26.57745
G1 X165.883 Y138.043 E26.61257
G1 X166.067 Y138.723 E26.64771
G1 X166.173 Y139.419 E26.68284
G1 X166.2 Y140 E26.71185
G1 X166.2 Y160 E27.70966
G1 X166.16 Y160.703 E27.74479
G1 X166.041 Y161.397 E27.77992
G1 X165.843 Y162.072 E27.81501
G1 X165.571 Y162.721 E27.85012
G1 X165.226 Y163.335 E27.88525
G1 X164.815 Y163.906 E27.92035
G1 X164.341 Y164.427 E27.95549
G1 X163.811 Y164.891 E27.99064
G1 X163.232 Y165.291 E28.02575
G1 X162.611 Y165.623 E28.06088
G1 X161.957 Y165.883 E28.09599
G1 X161.277 Y166.067 E28.13114
G1 X160.581 Y166.173 E28.16626
G1 X160 Y166.2 E28.19528
G1 X140 Y166.2 E29.19308
G1 X139.297 Y166.16 E29.22821
G1 X138.603 Y166.041 E29.26334
G1 X137.928 Y165.843 E29.29844
G1 X137.279 Y165.571 E29.33354
G1 X136.665 Y165.226 E29.36868
G1 X136.094 Y164.815 E29.40378
G1 X135.573 Y164.341 E29.43892
G1 X135.109 Y163.811 E29.47406
G1 X134.709 Y163.232 E29.50917
G1 X134.377 Y162.611 E29.5443
G1 X134.117 Y161.957 E29.57942
G1 X133.933 Y161.277 E29.61456
G1 X133.827 Y160.581 E29.64969
G1 X133.8 Y160 E29.6787
G1 X133.8 Y140 E30.67651
G1 X133.84 Y139.297 E30.71164
G1 X133.959 Y138.603 E30.74677
G1 X134.157 Y137.928 E30.78186
G1 X134.429 Y137.279 E30.81697
G1 X134.774 Y136.665 E30.85211
G1 X135.185 Y136.094 E30.8872
G1 X135.659 Y135.573 E30.92235
G0 F6000 X136.053 Y135.751
G1 F1200 X136.578 Y135.317 E30.95633
G1 X137.15 Y134.948 E30.99029
G1 X137.762 Y134.649 E31.02427
G1 X138.404 Y134.424 E31.05821
G1 X139.069 Y134.275 E31.09221
G1 X140 Y134.2 E31.13881
G1 X160 Y134.2 E32.13661
G1 X160.68 Y134.24 E32.1706
G1 X161.35 Y134.359 E32.20455
G1 X162.002 Y134.556 E32.23853
G1 X162.626 Y134.828 E32.27249
G1 X163.214 Y135.172 E32.30647
G1 X163.758 Y135.582 E32.34046
G1 X164.249 Y136.053 E32.3744
G1 X164.683 Y136.578 E32.40839
G1 X165.052 Y137.15 E32.44235
G1 X165.351 Y137.762 E32.47633
G1 X165.576 Y138.404 E32.51027
G1 X165.725 Y139.069 E32.54427
G1 X165.8 Y140 E32.59087
G1 X165.8 Y160 E33.58867
G1 X165.76 Y160.68 E33.62265
G1 X165.641 Y161.35 E33.6566
G1 X165.444 Y162.002 E33.69058
G1 X165.172 Y162.626 E33.72454
G1 X164.828 Y163.214 E33.75853
G1 X164.418 Y163.758 E33.79252
G1 X163.947 Y164.249 E33.82646
G1 X163.422 Y164.683 E33.86044
G1 X162.85 Y165.052 E33.8944
G1 X162.238 Y165.351 E33.92839
G1 X161.596 Y165.576 E33.96233
G1 X160.931 Y165.725 E33.99633
G1 X160 Y165.8 E34.04292
G1 X140 Y165.8 E35.04073
G1 X139.32 Y165.76 E35.07471
G1 X138.65 Y165.641 E35.10866
G1 X137.998 Y165.444 E35.14264
G1 X137.374 Y165.172 E35.1766
G1 X136.786 Y164.828 E35.21059
G1 X136.242 Y164.418 E35.24458
G1 X135.751 Y163.947 E35.27852
G1 X135.317 Y163.422 E35.3125
G1 X134.948 Y162.85 E35.34646
G1 X134.649 Y162.238 E35.38045
G1 X134.424 Y161.596 E35.41438
G1 X134.275 Y160.931 E35.44838
G1 X134.2 Y160 E35.49498
G1 X134.2 Y140 E36.49279
G1 X134.24 Y139.32 E36.52677
G1 X134.359 Y138.65 E36.56072
G1 X134.556 Y137.998 E36.5947
G1 X134.828 Y137.374 E36.62866
G1 X135.172 Y136.786 E36.66265
G1 X135.582 Y136.242 E36.69663
G1 X136.053 Y135.751 E36.73058
G0 F6000 X136.445 Y135.935
G1 F1200 X136.965 Y135.534 E36.76334
G1 X137.529 Y135.198 E36.79609
G1 X138.131 Y134.934 E36.82889
G1 X138.76 Y134.744 E36.86167
G1 X139.407 Y134.633 E36.89442
G1 X140 Y134.6 E36.92405
G1 X160 Y134.6 E37.92185
G1 X160.656 Y134.64 E37.95464
G1 X161.302 Y134.759 E37.98741
G1 X161.929 Y134.956 E38.0202
G1 X162.527 Y135.228 E38.05298
G1 X163.088 Y135.57 E38.08576
G1 X163.603 Y135.978 E38.11854
G1 X164.065 Y136.445 E38.15131
G1 X164.466 Y136.965 E38.18407
G1 X164.802 Y137.529 E38.21682
G1 X165.066 Y138.131 E38.24962
G1 X165.256 Y138.76 E38.2824
G1 X165.367 Y139.407 E38.31515
G1 X165.4 Y140 E38.34478
G1 X165.4 Y160 E39.34259
G1 X165.36 Y160.656 E39.37537
G1 X165.241 Y161.302 E39.40815
G1 X165.044 Y161.929 E39.44093
G1 X164.772 Y162.527 E39.47371
G1 X164.43 Y163.088 E39.50649
G1 X164.022 Y163.603 E39.53927
G1 X163.555 Y164.065 E39.57204
G1 X163.035 Y164.466 E39.6048
G1 X162.471 Y164.802 E39.63756
G1 X161.869 Y165.066 E39.67035
G1 X161.24 Y165.256 E39.70313
G1 X160.593 Y165.367 E39.73588
G1 X160 Y165.4 E39.76551
G1 X140 Y165.4 E40.76332
G1 X139.344 Y165.36 E40.79611
G1 X138.698 Y165.241 E40.82888
G1 X138.071 Y165.044 E40.86167
G1 X137.473 Y164.772 E40.89444
G1 X136.912 Y164.43 E40.92722
G1 X136.397 Y164.022 E40.96
G1 X135.935 Y163.555 E40.99277
G1 X135.534 Y163.035 E41.02553
G1 X135.198 Y162.471 E41.05829
G1 X134.934 Y161.869 E41.09108
G1 X134.744 Y161.24 E41.12386
G1 X134.633 Y160.593 E41.15661
G1 X134.6 Y160 E41.18625
G1 X134.6 Y140 E42.18405
G1 X134.64 Y139.344 E42.21684
G1 X134.759 Y138.698 E42.24961
G1 X134.956 Y138.071 E42.2824
G1 X135.228 Y137.473 E42.31517
G1 X135.57 Y136.912 E42.34795
G1 X135.978 Y136.397 E42.38073
G1 X136.445 Y135.935 E42.41351
G0 F6000 X136.373 Y136.559
G1 F1200 X136.836 Y136.129 E42.44503
G1 X137.35 Y135.76 E42.4766
G1 X137.906 Y135.46 E42.50812
G1 X138.495 Y135.232 E42.53963
G1 X139.109 Y135.08 E42.57118
G1 X140 Y135 E42.61582
G1 X160 Y135 E43.61362
G1 X160.631 Y135.04 E43.64516
G1 X161.252 Y135.159 E43.67671
G1 X161.852 Y135.356 E43.70822
G1 X162.424 Y135.627 E43.73979
G1 X162.956 Y135.967 E43.77129
G1 X163.441 Y136.373 E43.80285
G1 X163.871 Y136.836 E43.83437
G1 X164.24 Y137.35 E43.86594
G1 X164.54 Y137.906 E43.89746
G1 X164.768 Y138.495 E43.92897
G1 X164.92 Y139.109 E43.96053
G1 X165 Y140 E44.00516
G1 X165 Y160 E45.00296
G1 X164.96 Y160.631 E45.03451
G1 X164.841 Y161.252 E45.06605
G1 X164.644 Y161.852 E45.09756
G1 X164.373 Y162.424 E45.12914
G1 X164.033 Y162.956 E45.16063
G1 X163.627 Y163.441 E45.19219
G1 X163.164 Y163.871 E45.22371
G1 X162.65 Y164.24 E45.25528
G1 X162.094 Y164.54 E45.2868
G1 X161.505 Y164.768 E45.31831
G1 X160.891 Y164.92 E45.34987
G1 X160 Y165 E45.3945
G1 X140 Y165 E46.3923
G1 X139.369 Y164.96 E46.42385
G1 X138.748 Y164.841 E46.45539
G1 X138.148 Y164.644 E46.4869
G1 X137.576 Y164.373 E46.51848
G1 X137.044 Y164.033 E46.54998
G1 X136.559 Y163.627 E46.58153
G1 X136.129 Y163.164 E46.61306
G1 X135.76 Y162.65 E46.64462
G1 X135.46 Y162.094 E46.67614
G1 X135.232 Y161.505 E46.70765
G1 X135.08 Y160.891 E46.73921
G1 X135 Y160 E46.78384
G1 X135 Y140 E47.78165
G1 X135.04 Y139.369 E47.81319
G1 X135.159 Y138.748 E47.84474
G1 X135.356 Y138.148 E47.87624
G1 X135.627 Y137.576 E47.90782
G1 X135.967 Y137.044 E47.93932
G1 X136.373 Y136.559 E47.97087
G0 F6000 X136.767 Y136.728
G1 F1200 X137.225 Y136.331 E48.00111
G1 X137.732 Y135.998 E48.03138
G1 X138.278 Y135.734 E48.06163
G1 X138.854 Y135.545 E48.09188
G1 X139.45 Y135.433 E48.12213
G1 X140 Y135.4 E48.14962
G1 X160 Y135.4 E49.14742
G1 X160.605 Y135.44 E49.17767
G1 X161.199 Y135.559 E49.2079
G1 X161.773 Y135.755 E49.23816
G1 X162.316 Y136.026 E49.26844
G1 X162.819 Y136.365 E49.2987
G1 X163.272 Y136.767 E49.32891
G1 X163.669 Y137.225 E49.35915
G1 X164.002 Y137.732 E49.38941
