;FLAVOR:Marlin
;TIME:1057
;Filament used: 0.359166m
;Layer height: 0.2
;MINX:132.55
;MINY:132.549
;MINZ:0.3
;MAXX:167.8
;MAXY:167.8
;MAXZ:19.3
;Generated with Cura_SteamEngine 4.8.0
M140 S60
M105
M190 S60
M104 S200
M105
M109 S200
M82 ;absolute extrusion mode
M201 X500.00 Y500.00 Z100.00 E5000.00 ;Setup machine max acceleration
M203 X500.00 Y500.00 Z10.00 E50.00 ;Setup machine max feedrate
M204 P500.00 R1000.00 T500.00 ;Setup Print/Retract/Travel acceleration
M205 X8.00 Y8.00 Z0.40 E5.00 ;Setup Jerk
M220 S100 ;Reset Feedrate
M221 S100 ;Reset Flowrate

G28 ;Home
M420 S1 Z2 ;Enable ABL using saved Mesh and Fade Height

G92 E0 ;Reset Extruder
G1 Z2.0 F3000 ;Move Z Axis up
G1 X10.1 Y20 Z0.28 F5000.0 ;Move to start position
G1 X10.1 Y200.0 Z0.28 F1500.0 E15 ;Draw the first line
G1 X10.4 Y200.0 Z0.28 F5000.0 ;Move to side a little
G1 X10.4 Y20 Z0.28 F1500.0 E30 ;Draw the second line
G92 E0 ;Reset Extruder
G1 Z2.0 F3000 ;Move Z Axis up

G92 E0
G92 E0
G1 F1500 E-8
;LAYER_COUNT:99
;LAYER:0
M107
G0 F6000 X134.973 Y134.699 Z0.3
;TYPE:SKIRT
G1 F1500 E0
G1 F1200 X135.572 Y134.184 E0.03941
G1 X136.22 Y133.733 E0.0788
G1 X136.911 Y133.349 E0.11824
G1 X137.636 Y133.037 E0.15762
G1 X138.389 Y132.8 E0.197
G1 X139.163 Y132.641 E0.23642
G1 X139.948 Y132.56 E0.27579
G1 X140.35 Y132.55 E0.29586
G1 X160 Y132.549 E1.2762
G1 X160.788 Y132.589 E1.31556
G1 X161.569 Y132.708 E1.35498
G1 X162.333 Y132.906 E1.39435
G1 X163.074 Y133.18 E1.43377
G1 X163.783 Y133.528 E1.47317
G1 X164.453 Y133.945 E1.51254
G1 X165.078 Y134.428 E1.55195
G1 X165.651 Y134.972 E1.59137
G1 X166.165 Y135.571 E1.63075
G1 X166.617 Y136.219 E1.67016
G1 X167.001 Y136.909 E1.70956
G1 X167.312 Y137.635 E1.74896
G1 X167.549 Y138.388 E1.78835
G1 X167.709 Y139.161 E1.82773
G1 X167.79 Y139.947 E1.86715
G1 X167.8 Y140.349 E1.88721
G1 X167.8 Y160 E2.8676
G1 X167.76 Y160.789 E2.90702
G1 X167.641 Y161.569 E2.94638
G1 X167.443 Y162.334 E2.98581
G1 X167.169 Y163.074 E3.02518
G1 X166.821 Y163.783 E3.06458
G1 X166.403 Y164.454 E3.10402
G1 X165.92 Y165.078 E3.14339
G1 X165.377 Y165.651 E3.18277
G1 X164.778 Y166.166 E3.22218
G1 X164.13 Y166.617 E3.26157
G1 X163.439 Y167.001 E3.30101
G1 X162.714 Y167.313 E3.34039
G1 X161.961 Y167.55 E3.37977
G1 X161.187 Y167.709 E3.41919
G1 X160.402 Y167.79 E3.45856
G1 X160 Y167.8 E3.47863
G1 X140.35 Y167.8 E4.45897
G1 X139.561 Y167.76 E4.49838
G1 X138.781 Y167.641 E4.53775
G1 X138.016 Y167.443 E4.57717
G1 X137.276 Y167.169 E4.61654
G1 X136.567 Y166.821 E4.65594
G1 X135.896 Y166.403 E4.69538
G1 X135.272 Y165.92 E4.73475
G1 X134.699 Y165.377 E4.77414
G1 X134.184 Y164.778 E4.81355
G1 X133.733 Y164.13 E4.85293
G1 X133.349 Y163.439 E4.89237
G1 X133.037 Y162.714 E4.93175
G1 X132.8 Y161.961 E4.97114
G1 X132.641 Y161.187 E5.01056
G1 X132.56 Y160.402 E5.04993
G1 X132.55 Y160 E5.06999
G1 X132.55 Y140.35 E6.05033
G1 X132.59 Y139.561 E6.08975
G1 X132.709 Y138.781 E6.12911
G1 X132.907 Y138.016 E6.16854
G1 X133.181 Y137.276 E6.2079
G1 X133.529 Y136.567 E6.24731
G1 X133.947 Y135.896 E6.28675
G1 X134.43 Y135.272 E6.32612
G1 X134.973 Y134.699 E6.3655
G0 F6000 X135.366 Y134.88
G1 F1200 X135.961 Y134.392 E6.40389
G1 X136.603 Y133.969 E6.44225
G1 X137.286 Y133.614 E6.48065
G1 X138.001 Y133.333 E6.51898
G1 X138.743 Y133.127 E6.5574
G1 X139.501 Y132.999 E6.59575
G1 X140.35 Y132.95 E6.63818
G1 X160 Y132.949 E7.61852
G1 X160.768 Y132.989 E7.65689
G1 X161.528 Y133.108 E7.69527
G1 X162.271 Y133.306 E7.73363
G1 X162.99 Y133.58 E7.77202
G1 X163.676 Y133.927 E7.81037
G1 X164.323 Y134.343 E7.84875
G1 X164.923 Y134.824 E7.88711
G1 X165.47 Y135.365 E7.92549
G1 X165.958 Y135.96 E7.96389
G1 X166.381 Y136.602 E8.00224
G1 X166.736 Y137.284 E8.0406
G1 X167.017 Y138 E8.07897
G1 X167.223 Y138.741 E8.11735
G1 X167.351 Y139.5 E8.15575
G1 X167.4 Y140.349 E8.19817
G1 X167.4 Y160 E9.17857
G1 X167.36 Y160.768 E9.21693
G1 X167.241 Y161.528 E9.25531
G1 X167.043 Y162.271 E9.29367
G1 X166.769 Y162.99 E9.33206
G1 X166.422 Y163.676 E9.37042
G1 X166.006 Y164.323 E9.40879
G1 X165.525 Y164.923 E9.44716
G1 X164.984 Y165.47 E9.48554
G1 X164.389 Y165.958 E9.52393
G1 X163.747 Y166.381 E9.56229
G1 X163.064 Y166.736 E9.60069
G1 X162.349 Y167.017 E9.63902
G1 X161.607 Y167.223 E9.67744
G1 X160.849 Y167.351 E9.71579
G1 X160 Y167.4 E9.75822
G1 X140.35 Y167.4 E10.73856
G1 X139.582 Y167.36 E10.77693
G1 X138.822 Y167.241 E10.81531
G1 X138.079 Y167.043 E10.85367
G1 X137.36 Y166.769 E10.89205
G1 X136.674 Y166.422 E10.93041
G1 X136.027 Y166.006 E10.96878
G1 X135.427 Y165.525 E11.00715
G1 X134.88 Y164.984 E11.04553
G1 X134.392 Y164.389 E11.08392
G1 X133.969 Y163.747 E11.12228
G1 X133.614 Y163.064 E11.16068
G1 X133.333 Y162.349 E11.19901
G1 X133.127 Y161.607 E11.23743
G1 X132.999 Y160.849 E11.27578
G1 X132.95 Y160 E11.31821
G1 X132.95 Y140.35 E12.29855
G1 X132.99 Y139.582 E12.33692
G1 X133.109 Y138.822 E12.3753
G1 X133.307 Y138.079 E12.41366
G1 X133.581 Y137.36 E12.45205
G1 X133.928 Y136.674 E12.4904
G1 X134.344 Y136.027 E12.52878
G1 X134.825 Y135.427 E12.56714
G1 X135.366 Y134.88 E12.60553
G0 F6000 X135.758 Y135.066
G1 F1200 X136.348 Y134.607 E12.64282
G1 X136.984 Y134.212 E12.68017
G1 X137.658 Y133.888 E12.71748
G1 X138.363 Y133.638 E12.7548
G1 X139.091 Y133.464 E12.79214
G1 X139.833 Y133.369 E12.82946
G1 X140.35 Y133.35 E12.85527
G1 X160 Y133.349 E13.83562
G1 X160.747 Y133.389 E13.87294
G1 X161.485 Y133.508 E13.91023
G1 X162.207 Y133.706 E13.94758
G1 X162.903 Y133.979 E13.98488
G1 X163.566 Y134.325 E14.02219
G1 X164.189 Y134.74 E14.05954
G1 X164.763 Y135.219 E14.09684
G1 X165.283 Y135.757 E14.13417
G1 X165.743 Y136.347 E14.17149
G1 X166.137 Y136.983 E14.20882
G1 X166.462 Y137.657 E14.24615
G1 X166.712 Y138.362 E14.28347
G1 X166.886 Y139.089 E14.32076
G1 X166.981 Y139.831 E14.35808
G1 X167 Y140.349 E14.38394
G1 X167 Y160 E15.36433
G1 X166.96 Y160.747 E15.40166
G1 X166.841 Y161.485 E15.43895
G1 X166.643 Y162.207 E15.4763
G1 X166.37 Y162.903 E15.5136
G1 X166.023 Y163.566 E15.55093
G1 X165.608 Y164.189 E15.58828
G1 X165.129 Y164.763 E15.62558
G1 X164.592 Y165.284 E15.66291
G1 X164.002 Y165.743 E15.7002
G1 X163.366 Y166.138 E15.73755
G1 X162.692 Y166.462 E15.77486
G1 X161.987 Y166.712 E15.81218
G1 X161.259 Y166.886 E15.84952
G1 X160.517 Y166.981 E15.88684
G1 X160 Y167 E15.91265
G1 X140.35 Y167 E16.893
G1 X139.603 Y166.96 E16.93032
G1 X138.865 Y166.841 E16.96761
G1 X138.143 Y166.643 E17.00496
G1 X137.447 Y166.37 E17.04226
G1 X136.784 Y166.023 E17.0796
G1 X136.161 Y165.608 E17.11694
G1 X135.587 Y165.129 E17.15424
G1 X135.066 Y164.592 E17.19157
G1 X134.607 Y164.002 E17.22886
G1 X134.212 Y163.366 E17.26621
G1 X133.888 Y162.692 E17.30352
G1 X133.638 Y161.987 E17.34084
G1 X133.464 Y161.259 E17.37819
G1 X133.369 Y160.517 E17.41551
G1 X133.35 Y160 E17.44132
G1 X133.35 Y140.35 E18.42166
G1 X133.39 Y139.603 E18.45898
G1 X133.509 Y138.865 E18.49628
G1 X133.707 Y138.143 E18.53363
G1 X133.98 Y137.447 E18.57092
G1 X134.327 Y136.784 E18.60826
G1 X134.742 Y136.161 E18.6456
G1 X135.221 Y135.587 E18.6829
G1 X135.758 Y135.066 E18.72023
G0 F6000 X135.615 Y135.752
G1 F1200 X136.149 Y135.259 E18.75649
G1 X136.734 Y134.829 E18.79271
G1 X137.363 Y134.465 E18.82897
G1 X138.028 Y134.172 E18.86522
G1 X138.721 Y133.954 E18.90147
G1 X139.433 Y133.814 E18.93767
G1 X140.35 Y133.75 E18.98353
G1 X160 Y133.749 E19.96387
G1 X160.725 Y133.789 E20.0001
G1 X161.441 Y133.908 E20.03631
G1 X162.14 Y134.106 E20.07255
G1 X162.814 Y134.379 E20.10883
G1 X163.453 Y134.724 E20.14506
G1 X164.05 Y135.138 E20.18131
G1 X164.598 Y135.614 E20.21752
G1 X165.09 Y136.148 E20.25375
G1 X165.521 Y136.733 E20.29
G1 X165.885 Y137.361 E20.32621
G1 X166.178 Y138.026 E20.36247
G1 X166.396 Y138.719 E20.39871
G1 X166.536 Y139.432 E20.43496
G1 X166.6 Y140.349 E20.48082
G1 X166.6 Y160 E21.46122
G1 X166.56 Y160.725 E21.49744
G1 X166.441 Y161.442 E21.5337
G1 X166.243 Y162.141 E21.56995
G1 X165.97 Y162.814 E21.60618
G1 X165.625 Y163.453 E21.64241
G1 X165.211 Y164.05 E21.67866
G1 X164.735 Y164.598 E21.71487
G1 X164.201 Y165.091 E21.75113
G1 X163.616 Y165.521 E21.78735
G1 X162.987 Y165.885 E21.82361
G1 X162.322 Y166.178 E21.85986
G1 X161.629 Y166.396 E21.89611
G1 X160.917 Y166.536 E21.93231
G1 X160 Y166.6 E21.97817
G1 X140.35 Y166.6 E22.95851
G1 X139.625 Y166.56 E22.99474
G1 X138.908 Y166.441 E23.031
G1 X138.209 Y166.243 E23.06724
G1 X137.536 Y165.97 E23.10348
G1 X136.897 Y165.625 E23.13971
G1 X136.3 Y165.211 E23.17595
G1 X135.752 Y164.735 E23.21216
G1 X135.259 Y164.201 E23.24842
G1 X134.829 Y163.616 E23.28465
G1 X134.465 Y162.987 E23.3209
G1 X134.172 Y162.322 E23.35716
G1 X133.954 Y161.629 E23.3934
G1 X133.814 Y160.917 E23.4296
G1 X133.75 Y160 E23.47546
G1 X133.75 Y140.35 E24.45581
G1 X133.79 Y139.625 E24.49203
G1 X133.909 Y138.908 E24.52829
G1 X134.107 Y138.209 E24.56454
G1 X134.38 Y137.536 E24.60077
G1 X134.725 Y136.897 E24.637
G1 X135.139 Y136.3 E24.67325
G1 X135.615 Y135.752 E24.70946
G0 F6000 X136.009 Y135.923
G1 F1200 X136.539 Y135.459 E24.7446
G1 X137.118 Y135.059 E24.77971
G1 X137.739 Y134.727 E24.81484
G1 X138.393 Y134.467 E24.84996
G1 X139.073 Y134.283 E24.8851
G1 X139.769 Y134.177 E24.92022
G1 X140.35 Y134.15 E24.94924
G1 X160 Y134.149 E25.92958
G1 X160.703 Y134.189 E25.96471
G1 X161.396 Y134.308 E25.99979
G1 X162.072 Y134.506 E26.03494
G1 X162.721 Y134.778 E26.07004
G1 X163.335 Y135.122 E26.10516
G1 X163.906 Y135.534 E26.14029
G1 X164.427 Y136.008 E26.17543
G1 X164.89 Y136.538 E26.21054
G1 X165.291 Y137.117 E26.24567
G1 X165.623 Y137.738 E26.28081
G1 X165.883 Y138.392 E26.31592
G1 X166.067 Y139.071 E26.35101
G1 X166.173 Y139.767 E26.38614
G1 X166.2 Y140.349 E26.41521
G1 X166.2 Y160 E27.3956
G1 X166.16 Y160.703 E27.43073
G1 X166.041 Y161.397 E27.46586
G1 X165.843 Y162.072 E27.50095
G1 X165.571 Y162.721 E27.53606
G1 X165.226 Y163.335 E27.5712
G1 X164.815 Y163.906 E27.6063
G1 X164.341 Y164.427 E27.64144
G1 X163.811 Y164.891 E27.67658
G1 X163.232 Y165.291 E27.71169
G1 X162.611 Y165.623 E27.74682
G1 X161.957 Y165.883 E27.78193
G1 X161.277 Y166.067 E27.81708
G1 X160.581 Y166.173 E27.8522
G1 X160 Y166.2 E27.88122
G1 X140.35 Y166.2 E28.86156
G1 X139.647 Y166.16 E28.89669
G1 X138.953 Y166.041 E28.93182
G1 X138.278 Y165.843 E28.96692
G1 X137.629 Y165.571 E29.00202
G1 X137.015 Y165.226 E29.03716
G1 X136.444 Y164.815 E29.07226
G1 X135.923 Y164.341 E29.1074
G1 X135.459 Y163.811 E29.14254
G1 X135.059 Y163.232 E29.17765
G1 X134.727 Y162.611 E29.21278
G1 X134.467 Y161.957 E29.2479
G1 X134.283 Y161.277 E29.28304
G1 X134.177 Y160.581 E29.31817
G1 X134.15 Y160 E29.34718
G1 X134.15 Y140.35 E30.32753
G1 X134.19 Y139.647 E30.36266
G1 X134.309 Y138.953 E30.39778
G1 X134.507 Y138.278 E30.43288
G1 X134.779 Y137.629 E30.46799
G1 X135.124 Y137.015 E30.50312
G1 X135.535 Y136.444 E30.53822
G1 X136.009 Y135.923 E30.57336
G0 F6000 X136.403 Y136.101
G1 F1200 X136.928 Y135.667 E30.60735
G1 X137.5 Y135.298 E30.64131
G1 X138.112 Y134.999 E30.67529
G1 X138.754 Y134.774 E30.70923
G1 X139.419 Y134.625 E30.74323
G1 X140.35 Y134.55 E30.78983
G1 X160 Y134.549 E31.77017
G1 X160.679 Y134.589 E31.8041
G1 X161.35 Y134.708 E31.8381
G1 X162.002 Y134.905 E31.87208
G1 X162.626 Y135.177 E31.90604
G1 X163.214 Y135.521 E31.94003
G1 X163.757 Y135.931 E31.97398
G1 X164.249 Y136.401 E32.00792
G1 X164.683 Y136.927 E32.04194
G1 X165.051 Y137.499 E32.07588
G1 X165.351 Y138.11 E32.10984
G1 X165.576 Y138.753 E32.14382
G1 X165.725 Y139.417 E32.17777
G1 X165.8 Y140.349 E32.22442
G1 X165.8 Y160 E33.20481
G1 X165.76 Y160.68 E33.2388
G1 X165.641 Y161.35 E33.27275
G1 X165.444 Y162.002 E33.30673
G1 X165.172 Y162.626 E33.34069
G1 X164.828 Y163.214 E33.37467
G1 X164.418 Y163.758 E33.40866
G1 X163.947 Y164.249 E33.4426
G1 X163.422 Y164.683 E33.47659
G1 X162.85 Y165.052 E33.51055
G1 X162.238 Y165.351 E33.54453
G1 X161.596 Y165.576 E33.57847
G1 X160.931 Y165.725 E33.61247
G1 X160 Y165.8 E33.65907
G1 X140.35 Y165.8 E34.63941
G1 X139.67 Y165.76 E34.67339
G1 X139 Y165.641 E34.70734
G1 X138.348 Y165.444 E34.74132
G1 X137.724 Y165.172 E34.77528
G1 X137.136 Y164.828 E34.80927
G1 X136.592 Y164.418 E34.84326
G1 X136.101 Y163.947 E34.8772
G1 X135.667 Y163.422 E34.91118
G1 X135.298 Y162.85 E34.94514
G1 X134.999 Y162.238 E34.97913
G1 X134.774 Y161.596 E35.01307
G1 X134.625 Y160.931 E35.04707
G1 X134.55 Y160 E35.09366
G1 X134.55 Y140.35 E36.07401
G1 X134.59 Y139.67 E36.10799
G1 X134.709 Y139 E36.14194
G1 X134.906 Y138.348 E36.17592
G1 X135.178 Y137.724 E36.20988
G1 X135.522 Y137.136 E36.24387
G1 X135.932 Y136.592 E36.27785
G1 X136.403 Y136.101 E36.3118
G0 F6000 X136.795 Y136.285
G1 F1200 X137.315 Y135.884 E36.34456
G1 X137.879 Y135.548 E36.37731
G1 X138.481 Y135.284 E36.41011
G1 X139.11 Y135.094 E36.44289
G1 X139.757 Y134.983 E36.47564
G1 X140.35 Y134.95 E36.50527
G1 X160 Y134.949 E37.48561
G1 X160.655 Y134.989 E37.51835
G1 X161.302 Y135.108 E37.55117
G1 X161.928 Y135.305 E37.58391
G1 X162.527 Y135.577 E37.61673
G1 X163.087 Y135.919 E37.64947
G1 X163.603 Y136.326 E37.68226
G1 X164.064 Y136.794 E37.71503
G1 X164.466 Y137.313 E37.74778
G1 X164.802 Y137.878 E37.78058
G1 X165.066 Y138.48 E37.81337
G1 X165.256 Y139.109 E37.84616
G1 X165.367 Y139.756 E37.87891
G1 X165.4 Y140.349 E37.90854
G1 X165.4 Y160 E38.88893
G1 X165.36 Y160.656 E38.92172
G1 X165.241 Y161.302 E38.95449
G1 X165.044 Y161.929 E38.98728
G1 X164.772 Y162.527 E39.02005
G1 X164.43 Y163.088 E39.05283
G1 X164.022 Y163.603 E39.08561
G1 X163.555 Y164.065 E39.11839
G1 X163.035 Y164.466 E39.15115
G1 X162.471 Y164.802 E39.1839
G1 X161.869 Y165.066 E39.21669
G1 X161.24 Y165.256 E39.24948
G1 X160.593 Y165.367 E39.28223
G1 X160 Y165.4 E39.31186
G1 X140.35 Y165.4 E40.2922
G1 X139.694 Y165.36 E40.32499
G1 X139.048 Y165.241 E40.35776
G1 X138.421 Y165.044 E40.39055
G1 X137.823 Y164.772 E40.42332
G1 X137.262 Y164.43 E40.4561
G1 X136.747 Y164.022 E40.48888
G1 X136.285 Y163.555 E40.52166
G1 X135.884 Y163.035 E40.55442
G1 X135.548 Y162.471 E40.58717
G1 X135.284 Y161.869 E40.61996
G1 X135.094 Y161.24 E40.65275
G1 X134.983 Y160.593 E40.6855
G1 X134.95 Y160 E40.71513
G1 X134.95 Y140.35 E41.69547
G1 X134.99 Y139.694 E41.72826
G1 X135.109 Y139.048 E41.76103
G1 X135.306 Y138.421 E41.79382
G1 X135.578 Y137.823 E41.82659
G1 X135.92 Y137.262 E41.85937
G1 X136.328 Y136.747 E41.89215
G1 X136.795 Y136.285 E41.92493
G0 F6000 X136.723 Y136.909
G1 F1200 X137.186 Y136.479 E41.95645
G1 X137.7 Y136.11 E41.98802
G1 X138.256 Y135.81 E42.01954
G1 X138.845 Y135.582 E42.05105
G1 X139.459 Y135.43 E42.0826
G1 X140.35 Y135.35 E42.12724
G1 X160 Y135.349 E43.10758
G1 X160.631 Y135.389 E43.13912
G1 X161.251 Y135.508 E43.17062
G1 X161.852 Y135.705 E43.20217
G1 X162.423 Y135.976 E43.23371
G1 X162.956 Y136.316 E43.26525
G1 X163.441 Y136.721 E43.29677
G1 X163.871 Y137.185 E43.32833
G1 X164.24 Y137.698 E43.35986
G1 X164.54 Y138.254 E43.39138
G1 X164.768 Y138.844 E43.42293
G1 X164.92 Y139.458 E43.45449
G1 X165 Y140.349 E43.49912
G1 X165 Y160 E44.47951
G1 X164.96 Y160.631 E44.51106
G1 X164.841 Y161.252 E44.5426
G1 X164.644 Y161.852 E44.57411
G1 X164.373 Y162.424 E44.60569
G1 X164.033 Y162.956 E44.63719
G1 X163.627 Y163.441 E44.66874
G1 X163.164 Y163.871 E44.70027
G1 X162.65 Y164.24 E44.73184
G1 X162.094 Y164.54 E44.76335
G1 X161.505 Y164.768 E44.79486
G1 X160.891 Y164.92 E44.82642
G1 X160 Y165 E44.87105
G1 X140.35 Y165 E45.8514
G1 X139.719 Y164.96 E45.88294
G1 X139.098 Y164.841 E45.91448
G1 X138.498 Y164.644 E45.94599
G1 X137.926 Y164.373 E45.97757
G1 X137.394 Y164.033 E46.00907
G1 X136.909 Y163.627 E46.04062
G1 X136.479 Y163.164 E46.07215
G1 X136.11 Y162.65 E46.10372
G1 X135.81 Y162.094 E46.13523
G1 X135.582 Y161.505 E46.16674
G1 X135.43 Y160.891 E46.1983
G1 X135.35 Y160 E46.24293
G1 X135.35 Y140.35 E47.22328
G1 X135.39 Y139.719 E47.25482
G1 X135.509 Y139.098 E47.28637
G1 X135.706 Y138.498 E47.31787
G1 X135.977 Y137.926 E47.34945
G1 X136.317 Y137.394 E47.38095
G1 X136.723 Y136.909 E47.4125
G0 F6000 X137.117 Y137.078
G1 F1200 X137.575 Y136.681 E47.44274
G1 X138.082 Y136.348 E47.47301
G1 X138.628 Y136.084 E47.50326
G1 X139.204 Y135.895 E47.53351
G1 X139.8 Y135.783 E47.56376
G1 X140.35 Y135.75 E47.59125
G1 X160 Y135.749 E48.57159
G1 X160.605 Y135.789 E48.60184
G1 X161.199 Y135.908 E48.63207
G1 X161.773 Y136.104 E48.66233
